X: 89
P: No. LXXXIX.
M: 6/8
L: 1/8
K: Amix
V: 1
g |\
fed cAc | ecA A2g | fed cAc | dBG G2g |\
fed cAc | def gfe | agf gfe | dBG G2 :|
|: B |\
V: 2 clef=bass middle=d
z |\
d3 z3 | a3 A3 | d3 z3 | g3 G3 |\
d3 z3 | d3 z3 | d3 z3 | g3 G2 :|
|: z |\
c3 c'3 | c3 c'3 | c3 z3 | g3 G3 |\
c3 c'3 | c3 c'3 | d3 z3 | g3 G2 :|

